icons/cancel.svg

<svg width="48" height="48" viewBox="0 0 48 48" fill="none" xmlns="http://www.w3.org/2000/svg">
<path fill-rule="evenodd" clip-rule="evenodd" d="M44 24C44 35.0457 35.0457 44 24 44C12.9543 44 4 35.0457 4 24C4 12.9543 12.9543 4 24 4C35.0457 4 44 12.9543 44 24ZM36.7278 36.728C33.4705 39.9853 28.9705 42 24 42C14.0589 42 6 33.9411 6 24C6 19.0295 8.01468 14.5295 11.272 11.2722L36.7278 36.728ZM38.0637 35.2355L12.7645 9.93628C15.8439 7.47298 19.7499 6 24 6C33.9411 6 42 14.0589 42 24C42 28.2501 40.527 32.1561 38.0637 35.2355Z" fill="black"/>
</svg>

<svg
  xmlns="http://www.w3.org/2000/svg"
  width="24"
  height="24"
  viewBox="0 0 24 24"
  fill="none"
  stroke="currentColor"
  stroke-width="2"
  stroke-linecap="round"
  stroke-linejoin="round"
>
  <path
    fill-rule="evenodd"
    d="M44 24c0 11.046-8.954 20-20 20S4 35.046 4 24 12.954 4 24 4s20 8.954 20 20m-7.272 12.728A17.94 17.94 0 0 1 24 42c-9.941 0-18-8.059-18-18 0-4.97 2.015-9.47 5.272-12.728zm1.336-1.492-25.3-25.3A17.92 17.92 0 0 1 24 6c9.941 0 18 8.059 18 18 0 4.25-1.473 8.156-3.936 11.236"
    clip-rule="evenodd"
  />
</svg>
